X: 43620
T: Zakynthos, The
R: jig
M: 6/8
K: Aminor
|:a2 a gag|e2 a a2 g|ecc BcB|AFF F3|
EAB cBA|FAB cBA|B2 B edc|Bcd cBA:|
|:EAB cBA|FAB cBA|B2 B edc|Bcd cBA|
EAB cBA|FAB cBA|B2 B edc|B2 AA F2:|
|:d2 dd2 c|d c2 B2 A|d2d2 c d|B3 A3|
d2 dd2 c|d c2 B2 A|d dd2 c d|e3 e3:|

